X:1
T:Je vet s\aa v\ael ke de gamle sei (pols)
R:rorospols
Z:Sm\aaviltlaget, p\aa Skuddhold, Track 9
Z:(also Rorostraktom #88)
M:3/4
L:1/8
%%slurgraces
K:A
c- \
|: "A"c>d e3 (=g- | "D"(3~=gef) d2 {e}f2 | "D"d2 "A"((3cAc) "E"B>G | "A"((3ABc) "E"E4 \
|  "A"c>d e3 (=g- | "D"(3~=gef) d2 {e}f2 | "D"d2 "A"((3cAc) "E"B>G | "A"{G}A2 A4 :|
|: "A"AB  c3 (c | "A"e)uf "D"d3 (d | "A"A)uB c2 (cA) | "A"(c>d) "E"e3 (B \
|  "A"cd) (ef) "A7"(=g2- | {aga}(3=gef) "D"d2 e>f | "D"d2 "A"((3cAc) "E"B>G | "A"{G}A2 A4 :|
